frontend/public/svg/files/file-pdf.svg

<svg width="142" height="175" viewBox="0 0 142 175" fill="none" xmlns="http://www.w3.org/2000/svg">
<g clip-path="url(#clip0)">
<path d="M140.687 93.1644C140.867 109.431 141.111 125.696 141.195 141.964C141.226 147.904 140.769 153.843 140.726 159.789C140.664 168.177 134.102 173.205 126.549 173.359C111.171 173.673 95.7887 174.043 80.4081 173.964C62.1048 173.871 43.8014 173.402 25.5027 172.933C21.2425 172.722 16.9978 172.267 12.7895 171.571C7.65492 170.849 2.60183 164.962 2.41608 159.374C1.94746 145.251 1.41382 131.124 1.25892 116.996C0.916312 85.9138 0.849366 54.8283 0.517257 23.7455C0.466719 18.9706 0.582881 14.345 2.55846 9.92649C4.03522 6.62121 6.14933 3.94077 9.81696 2.95101C11.1159 2.61352 12.4484 2.42131 13.7898 2.37799C19.5104 2.15156 25.2448 2.16377 30.9549 1.78703C52.4014 0.381158 73.846 1.45915 95.2925 1.63833C97.3468 1.59847 99.388 1.97594 101.292 2.74783C103.196 3.51971 104.924 4.66982 106.371 6.12886C113.287 12.689 120.702 18.7232 127.859 25.0313C130.804 27.6277 133.594 30.3994 136.493 33.0484C137.301 33.7478 137.954 34.6076 138.412 35.573C138.87 36.5386 139.122 37.5892 139.152 38.6574C139.386 44.5959 139.756 50.5316 139.854 56.4714C140.055 68.7013 140.113 80.9335 140.231 93.165L140.687 93.1644ZM93.3799 10.0906C91.9662 9.94487 90.9712 9.76864 89.9729 9.75026C75.1567 9.47637 60.3403 9.21712 45.5236 8.97342C39.1296 8.87235 32.7342 8.83717 26.3395 8.79713C23.09 8.77678 19.8326 8.67361 16.5936 8.85804C12.1305 9.11204 10.6105 10.4209 10.0158 14.9523C9.56047 18.7257 9.34821 22.5246 9.38043 26.3254C9.37321 30.6933 9.80049 35.0604 9.83199 39.4297C9.92847 52.7783 9.94692 66.1273 9.95676 79.4764C9.97468 104.266 9.98078 129.056 9.97514 153.845C9.93917 154.856 10.0032 155.866 10.1661 156.864C11.1769 161.866 13.8416 164.576 19.0188 164.792C41.0186 165.711 63.0196 165.692 85.0274 165.289C95.8038 165.092 106.583 165.033 117.361 164.917C120.052 164.888 122.75 164.996 125.434 164.838C129.65 164.591 132.02 162.131 131.971 157.921C131.912 152.655 131.562 147.394 131.47 142.128C131.375 136.634 131.564 131.132 131.404 125.641C130.997 111.516 130.304 97.3984 130.036 83.272C129.815 71.498 130.036 59.7163 130.05 47.9384C130.05 47.0851 129.926 46.2362 129.884 45.7066C122.543 45.7066 115.485 45.7724 108.431 45.6681C106.08 45.6287 103.739 45.3414 101.448 44.8105C98.0301 44.0183 96.0952 41.8164 95.876 38.158C95.6338 34.1307 95.2282 30.1134 94.8659 26.094C94.3953 20.8545 93.8958 15.6261 93.3799 10.0906ZM124.647 36.3806C124.768 36.1706 124.889 35.9609 125.01 35.7512L102.689 15.4926L102.174 15.7502C103.277 22.97 104.38 30.1894 105.505 37.5568L124.647 36.3806Z" fill="black"/>
<path d="M62.7033 132.498C63.0315 123.33 63.3472 114.161 63.7095 104.994C63.8322 101.879 64.4596 101.526 67.6015 100.75C76.6321 98.5181 83.3248 101.989 88.6857 108.989C89.0946 109.522 89.4661 110.086 89.8862 110.61C100.754 124.163 91.0676 140.352 78.3346 143.579C75.624 144.275 72.8765 144.819 70.1048 145.209C68.4883 145.465 66.8369 145.068 65.5123 144.107C64.1879 143.146 63.2989 141.698 63.0407 140.082C62.5694 137.588 62.297 135.06 61.936 132.547L62.7033 132.498ZM69.4531 136.865C72.5687 137.019 75.6791 136.471 78.5552 135.263C86.909 131.616 89.7936 123.146 85.2688 115.296C84.1682 113.346 82.8798 111.508 81.4227 109.808C80.2177 108.381 78.7291 107.219 77.0522 106.396C75.3752 105.574 73.5453 105.108 71.6787 105.029C72.2858 115.817 70.4848 126.197 69.4557 136.865H69.4531Z" fill="black"/>
<path d="M35.6898 130.113C35.4541 132.697 35.3045 135.131 34.9822 137.541C34.8379 138.872 34.4918 140.173 33.9558 141.399C33.683 142.091 33.1642 142.658 32.499 142.992C31.8337 143.325 31.069 143.401 30.3512 143.205C28.7189 142.807 27.9582 141.626 27.9838 139.971C28.0612 134.933 28.1708 129.895 28.2463 124.856C28.3224 119.707 28.4031 114.557 28.4221 109.406C28.4313 106.814 29.0936 104.61 31.2228 102.901C35.8388 99.1989 41.0075 98.5038 46.4315 100.357C48.7269 101.136 50.8462 102.36 52.6681 103.959C54.4899 105.559 55.9786 107.501 57.049 109.676C59.0456 113.578 58.6596 117.487 56.1393 121.117C52.0267 127.042 46.0265 129.344 39.135 129.912C38.0389 129.997 36.9394 130.04 35.6898 130.113ZM34.5143 107.821C34.7486 112.586 34.9902 117.507 35.2573 122.941C38.4077 122.362 41.1545 122.001 43.8199 121.323C46.2805 120.698 48.1169 119.026 49.6226 117.003C50.1492 116.346 50.4635 115.544 50.5235 114.704C50.5835 113.863 50.3865 113.025 49.9586 112.299C47.1133 106.66 40.5992 104.65 34.5143 107.82V107.821Z" fill="black"/>
<path d="M106.6 122.902C106.306 128.172 106.092 132.857 105.751 137.533C105.693 138.757 105.376 139.955 104.823 141.049C104.559 141.582 104.149 142.029 103.642 142.341C103.135 142.652 102.55 142.814 101.955 142.809C101.36 142.803 100.779 142.629 100.277 142.309C99.7758 141.988 99.3755 141.533 99.1208 140.995C98.5997 140.005 98.2892 138.918 98.2098 137.803C97.3979 126.811 97.9204 115.837 98.8911 104.882C99.1438 103.335 99.5848 101.825 100.204 100.385C100.766 98.7847 102.201 98.2307 103.679 98.1644C110.066 97.8769 116.457 97.5823 122.849 97.5402C125.844 97.5199 127.387 98.9967 127.333 101.037C127.28 103.078 125.65 104.331 122.715 104.384C118.114 104.464 113.51 104.446 108.907 104.467C107.923 104.472 106.938 104.467 105.983 104.467V114.9C108.292 114.9 110.267 114.896 112.243 114.9C113.359 114.834 114.478 114.855 115.59 114.961C116.492 115.067 117.328 115.486 117.952 116.146C118.576 116.806 118.948 117.665 119.003 118.571C118.995 119.421 118.713 120.244 118.201 120.922C117.689 121.599 116.972 122.094 116.157 122.333C114.857 122.668 113.522 122.852 112.179 122.881C110.402 122.969 108.617 122.902 106.6 122.902Z" fill="black"/>
</g>
<defs>
<clipPath id="clip0">
<rect width="141.113" height="173.93" fill="white" transform="translate(0.154297 0.574219)"/>
</clipPath>
</defs>
</svg>

<svg xmlns="http://www.w3.org/2000/svg" width="142" height="175" fill="none" viewBox="0 0 142 175"><g fill="#000" clip-path="url(#a)"><path d="M140.687 93.164c.18 16.267.424 32.532.508 48.8.031 5.94-.426 11.879-.469 17.825-.062 8.388-6.624 13.416-14.177 13.57-15.378.314-30.76.684-46.14.605-18.304-.093-36.608-.562-54.906-1.031-4.26-.211-8.505-.666-12.713-1.362-5.135-.722-10.188-6.609-10.374-12.197-.469-14.123-1.002-28.25-1.157-42.378-.343-31.082-.41-62.168-.742-93.25-.05-4.775.066-9.401 2.041-13.82C4.035 6.621 6.15 3.941 9.817 2.951a18 18 0 0 1 3.973-.573c5.72-.226 11.455-.214 17.165-.591C52.4.381 73.846 1.459 95.293 1.638a15.2 15.2 0 0 1 11.078 4.49c6.916 6.561 14.331 12.595 21.488 18.903 2.945 2.597 5.735 5.368 8.634 8.017a7.7 7.7 0 0 1 2.659 5.61c.234 5.938.604 11.874.702 17.813.201 12.23.259 24.463.377 36.694zM93.38 10.091c-1.414-.146-2.409-.322-3.407-.34q-22.224-.412-44.45-.778c-6.393-.1-12.789-.136-19.184-.176-3.249-.02-6.506-.123-9.745.061-4.464.254-5.984 1.563-6.578 6.094a89 89 0 0 0-.636 11.373c-.007 4.368.42 8.735.452 13.105.096 13.348.115 26.697.125 40.046q.027 37.185.018 74.369a15.3 15.3 0 0 0 .191 3.019c1.01 5.002 3.676 7.712 8.853 7.928 22 .919 44 .9 66.008.497 10.777-.197 21.556-.256 32.334-.372 2.691-.029 5.389.079 8.073-.079 4.216-.247 6.586-2.707 6.537-6.917-.059-5.266-.409-10.527-.501-15.793-.095-5.494.094-10.996-.066-16.487-.407-14.125-1.1-28.243-1.368-42.369-.221-11.774 0-23.556.014-35.334 0-.853-.124-1.702-.166-2.231-7.341 0-14.399.065-21.453-.039a33.4 33.4 0 0 1-6.983-.858c-3.418-.792-5.353-2.994-5.572-6.652-.242-4.027-.648-8.045-1.01-12.064-.47-5.24-.97-10.468-1.486-16.003m31.267 26.29.363-.63-22.321-20.258-.515.257 3.331 21.807z"/><path d="M62.703 132.498c.328-9.168.644-18.337 1.006-27.504.123-3.115.75-3.468 3.892-4.244 9.031-2.232 15.724 1.239 21.085 8.239.409.533.78 1.097 1.2 1.621 10.868 13.553 1.182 29.742-11.551 32.969a75 75 0 0 1-8.23 1.63 6.176 6.176 0 0 1-7.064-5.127c-.472-2.494-.744-5.022-1.105-7.535zm6.75 4.367a20.85 20.85 0 0 0 9.102-1.602c8.354-3.647 11.239-12.117 6.714-19.967a34.5 34.5 0 0 0-3.846-5.488 13.5 13.5 0 0 0-9.744-4.779c.607 10.788-1.194 21.168-2.223 31.836zm-33.763-6.752c-.236 2.584-.386 5.018-.708 7.428a13.2 13.2 0 0 1-1.026 3.858 3.02 3.02 0 0 1-3.605 1.806c-1.632-.398-2.393-1.579-2.367-3.234.077-5.038.187-10.076.262-15.115.076-5.149.157-10.299.176-15.45.01-2.592.672-4.796 2.8-6.505 4.617-3.702 9.785-4.397 15.21-2.544a18.44 18.44 0 0 1 10.617 9.319c1.997 3.902 1.61 7.811-.91 11.441-4.112 5.925-10.113 8.227-17.004 8.795-1.096.085-2.196.128-3.445.201m-1.176-22.292.743 15.12c3.15-.579 5.898-.94 8.563-1.618 2.46-.625 4.297-2.297 5.803-4.32a4.15 4.15 0 0 0 .336-4.704c-2.846-5.639-9.36-7.649-15.445-4.479zm72.086 15.081c-.294 5.27-.508 9.955-.849 14.631a8.7 8.7 0 0 1-.928 3.516 3.17 3.17 0 0 1-4.546 1.26 3.17 3.17 0 0 1-1.156-1.314 8.1 8.1 0 0 1-.911-3.192c-.812-10.992-.29-21.966.681-32.921a19.2 19.2 0 0 1 1.313-4.497c.562-1.6 1.997-2.154 3.475-2.22 6.387-.288 12.778-.583 19.17-.625 2.995-.02 4.538 1.457 4.484 3.497-.053 2.041-1.683 3.294-4.618 3.347-4.601.08-9.205.062-13.808.083-.984.005-1.969 0-2.924 0V114.9c2.309 0 4.284-.004 6.26 0a22 22 0 0 1 3.347.061 3.87 3.87 0 0 1 3.413 3.61 3.96 3.96 0 0 1-2.846 3.762c-1.3.335-2.635.519-3.978.548-1.777.088-3.562.021-5.579.021"/></g><defs><clipPath id="a"><path fill="#fff" d="M.154.574h141.113v173.93H.154z"/></clipPath></defs></svg>
